X:18833
T:Windmill, The 
M:4/4
L:1/8
C:Ciaran Tourish
S:Altan: Island Angel
R:Reel
K:D
|:d2 fd ceAc|dBGB AFDE|FB ~B2 Adfd|eAce afge|
d2 fd ceAc|dBGB AFDF|GFGA Bdfa|1gece d2 (3ABc:|2gece defg|
|:eA ~A2 a3 f|gA ~A2 dFAd| ~B2 AB G3 F|EB,EF GABc|
dA ~A2 eAaA|fddc dfed|cdef gfga|1gece defg:|2gece dz3||


